X:1
T:G minor Daniel Belknap, 1797
T:Isaac Watts, 1719 (Psalm 50)     86. 86. (C. M.)
T:Newmark
T:Transcribed from The Harmonist's Companion, 1797.
%%score [ 1 2 3 4 ]
L:1/8
M:4/4
K:Bb
V:1 treble nm="Treble" snm="Tr"
V:2 treble nm="Counter" snm="C"
V:3 treble-8 nm="Tenor" snm="T"
V:4 bass nm="Bass" snm="B"
V:1
 B8 | B2 B2 B2 G>A | B>c d2 d4- | d4 d4 | B2 A2 (B3 c | d2 c2 B2) A2 | B8 |: z8 | z8 | z8 | %10
 z4"^Thunder and" B2 ee | %11
"^darkness, fire and storm, _________________                 Lead   on that  dreadful   day.   Thunder and darkness, fire    and storm, Lead on   that   dreadful    day." d2 e2 f2 fe | %12
 (d>edecd e2 | d6) Bc | d2 e2 d2 c2 | B8 | B2 Bc d2 e2 | f>e d>e d2 d2 | B>A Bc d2 d2 | d8 :| %20
V:2
"^1. Throned on a cloud our God shall come,   Bright flames prepare ________  his    way,                                                                Thunder and darkness, fire and" D8 | %1
 G2 G2 F2 E2 | D2 G2 F4- | F4 G4 | G2 AG F4 | (G2 F2 FG) A2 | G8 |: z8 | z8 | z4 F2 CC | %10
 D2 F2 GF E2 | %11
"^storm,                  Thunder   and  darkness,     fire  and storm, Lead on that dreadful  day.  Thunder and darkness, fire    and storm, Lead on   that   dreadful    day." F8 | %12
 G2 GB A2 AG | FE D2 F2 D2 | D2 C2 D>E F2 | G8 | G2 GA A2 A2 | A2 B2 B2 B2 | F2 F2 G2 ^F2 | G8 :| %20
V:3
 d8 | d2 d2 f2 g2 | d>c B2 A4- | A4 G4 | B2 c2 (d3 c | B2 c2 f2) fe | d8 |: z8 | %8
 z4"^Thunder and darkness, fire and storm, Lead on that" d2 dd | g2 g2 f2 e2 | d2 A2 B2 c2 | %11
"^dreadful day,       Thunder   and  darkness,     fire  and storm, Lead on that dreadful  day.  Thunder and darkness, fire    and storm, Lead on   that   dreadful    day." f2 e2 d4 | %12
 d2 dB c2 c2 | f2 g2 d2 GA | B2 A2 B2 c2 | d8 | d2 de f2 e2 | d>c B>c d2 g2 | f>e dc B2 A2 | G8 :| %20
V:4
 G,8 | G,2 G,2 D2 C2 | B,>A, G,2 D,4- | D,4 G,4 | G,2 F,2 (B,3 A, | G,2 C2 D2) D,2 | G,8 |: %7
 z4"^Thunder and darkness, fire and storm, Lead         on that dreadful" D,2 D,D, | %8
 G,2 G,2 B,2 B,A, | G,4 (B,2 C2) | B,2 A,2 G,2 A,2 | %11
"^day,                      Thunder   and  darkness,     fire  and storm, Lead on that dreadful  day.  Thunder and darkness, fire    and storm, Lead on   that   dreadful    day." D,8 | %12
 G,2 G,G, A,2 A,2 | B,2 G,2 D2 DC | B,2 C2 B,2 A,2 | G,8 | G,2 F,E, D,2 C,2 | D,2 D,2 G,2 G,2 | %18
 B,>C B,A, G,2 D,2 | G,,8 :| %20

